icons/1_Primary/Njalla.svg

<svg xmlns="http://www.w3.org/2000/svg" width="1024" height="1024" fill="none">
   <g clip-path="url(#a)">
      <path fill="#96DFD3" d="M512 1024c282.77 0 512-229.23 512-512S794.77 0 512 0 0 229.23 0 512s229.23 512 512 512Z" style="fill:#73ada4"/>
      <path fill="#fff" d="M485.09 608.6h53.82V768h-53.82V608.6Zm-26.34-106.92 55.44-123.19 112.26 262.57h58.9L515.12 256 338.65 641.06h58l62.1-139.38Z"/>
   </g>
   <defs>
      <clipPath id="a">
         <path fill="#fff" d="M0 0h1024v1024H0z"/>
      </clipPath>
   </defs>
</svg>

<?xml version="1.0" encoding="UTF-8" standalone="no"?>
<svg
   width="1024"
   height="1024"
   viewBox="0 0 1024 1024"
   fill="none"
   version="1.1"
   id="svg13"
   sodipodi:docname="Njalla.svg"
   inkscape:version="1.2.2 (732a01da63, 2022-12-09)"
   xmlns:inkscape="http://www.inkscape.org/namespaces/inkscape"
   xmlns:sodipodi="http://sodipodi.sourceforge.net/DTD/sodipodi-0.dtd"
   xmlns="http://www.w3.org/2000/svg"
   xmlns:svg="http://www.w3.org/2000/svg">
  <sodipodi:namedview
     id="namedview15"
     pagecolor="#505050"
     bordercolor="#eeeeee"
     borderopacity="1"
     inkscape:showpageshadow="0"
     inkscape:pageopacity="0"
     inkscape:pagecheckerboard="0"
     inkscape:deskcolor="#505050"
     showgrid="false"
     inkscape:zoom="0.83398438"
     inkscape:cx="348.9274"
     inkscape:cy="512"
     inkscape:window-width="1920"
     inkscape:window-height="1009"
     inkscape:window-x="1072"
     inkscape:window-y="479"
     inkscape:window-maximized="1"
     inkscape:current-layer="svg13" />
  <g
     clip-path="url(#clip0_2_2955)"
     id="g6">
    <path
       d="M512 1024C794.77 1024 1024 794.77 1024 512C1024 229.23 794.77 0 512 0C229.23 0 0 229.23 0 512C0 794.77 229.23 1024 512 1024Z"
       fill="#96DFD3"
       id="path2"
       style="fill:#73ada4" />
    <path
       d="M485.09 608.6H538.91V768H485.09V608.6ZM458.75 501.68L514.19 378.49L626.45 641.06H685.35L515.12 256L338.65 641.06H396.65L458.75 501.68Z"
       fill="white"
       id="path4" />
  </g>
  <defs
     id="defs11">
    <clipPath
       id="clip0_2_2955">
      <rect
         width="1024"
         height="1024"
         fill="white"
         id="rect8" />
    </clipPath>
  </defs>
</svg>
